X:2597
T:Polska efter Johan Lundin
S:efter Johan Lundin
B:[[http://www.smus.se/earkiv/fmk/browselarge.php?lang=sw&katalogid=M+6&bildnr=00018|SMUS - katalog M6 bild 18]] nr 84
Z:Nils L
N:"[[Platser/Ärlinghundra|Erlinghundra]]. 1850-talet."
R:Polska
O:Uppland
M:3/4
L:1/8
K:G
de/d/ BD GB | de/d/ cF Ac | Bd gf ed | cA2< d2d |
de/d/ BD GB | de/d/ cF Ac | Bd gf ed | c>A G2>G2 ::
DG BB BB | BG/B/ d2>d2 | DF/A/ AF/A/ AF/A/ | AF/A/ c2> c2 |
DG/B/ BG/B/ BG/B/ | BG/B/ e2>e2 | ed dD DF/A/ | {/B}AG/F/ G2 z2 :|
(:musicend:)
(:music:)
